X: 26
T: Hopkinson's Favourite
R: jig
M: 6/8
G: Hopkinson's Favourite
L: 1/8
K: Dmin
|:A|"Dm"dfd f2 d | A2 F F2 A | dfd f2 f | "Gm"g2e e2f |"Dm"dfd f2 d | 
A2 F FAd | "F"d2 a agf | "Gm"gfg "A7"e2 :||: f|"Dm"d2 a agf | "Gm"gab "F"a2 f | 
"Dm"d2 a agf | "Gm"g2e "A7"e2f |"Dm"d2 a agf | "Gm"gab "F"a2 f | "Gm"bag "F"agf | "Gm"gaf "A7"e2 :|]
